Obsidian-SemiLight/actions/22s/node-segment-line.svg

<svg viewBox="0 0 22 22" xmlns="http://www.w3.org/2000/svg"><path d="m16.646484 4.6464844-11.9999996 11.9999996.7070312.707032 12.0000004-12.0000004z" fill="#4d4d4d"/><path d="m16 3v3h3v-3zm1 1h1v1h-1zm-14 12v3h3v-3zm1 1h1v1h-1z" fill="#3daee9"/></svg>

<svg xmlns="http://www.w3.org/2000/svg" viewBox="0 0 22 22">
  <defs id="defs3051">
    <style type="text/css" id="current-color-scheme">
      .ColorScheme-Text {
        color:#4d4d4d;
      }
      .ColorScheme-Highlight {
        color:#3daee9;
      }
      </style>
  </defs>
 <path 
     style="fill:currentColor;fill-opacity:1;stroke:none" 
     d="M 16.646484 4.6464844 L 4.6464844 16.646484 L 5.3535156 17.353516 L 17.353516 5.3535156 L 16.646484 4.6464844 z "
     class="ColorScheme-Text"
     />
 <path 
     style="fill:currentColor;fill-opacity:1;stroke:none" 
     d="M 16 3 L 16 6 L 19 6 L 19 3 L 16 3 z M 17 4 L 18 4 L 18 5 L 17 5 L 17 4 z M 3 16 L 3 19 L 6 19 L 6 16 L 3 16 z M 4 17 L 5 17 L 5 18 L 4 18 L 4 17 z "
     class="ColorScheme-Highlight"
     />
</svg>
